build/assets/img/stage-support/image-element-3.svg

<svg width="75" height="90" viewBox="0 0 75 90" fill="none" xmlns="http://www.w3.org/2000/svg">
<g filter="url(#filter0_di)">
<path d="M40.5427 63.5226C43.2914 62.8742 45.8023 63.2103 48.3234 64.3298C50.7906 65.581 52.4059 67.6999 53.3953 70.9425C53.8039 72.3699 53.9002 73.3471 53.9105 74.1304C53.8231 75.9605 53.1215 77.6736 51.5255 79.1453C50.0695 80.6792 48.3013 81.763 46.3288 82.1331C43.4401 82.7193 40.9291 82.3832 38.7099 80.9306C36.4367 79.6098 34.8755 77.3591 33.7782 74.38L33.4877 73.4724C32.9391 71.9828 33.1447 70.6725 33.5765 69.6183C34.408 67.1841 35.8318 65.3244 37.9341 64.2333C38.7963 64.1489 39.6265 63.7388 40.5427 63.5226ZM32.4506 11.3383C35.3933 10.6202 37.786 10.4367 39.6827 10.6559C41.4393 10.8129 43.7883 11.5445 46.4496 12.7261C48.9707 13.8455 51.1038 15.1041 52.7088 16.4397C56.1988 19.2353 58.6968 22.8363 59.9766 26.9866C61.0521 30.4232 61.3194 33.8125 60.5522 36.8981C59.925 40.046 58.2094 43.022 55.4376 46.152C53.6257 48.1508 52.4499 49.8092 51.9642 50.9952C51.4244 52.3129 51.0248 53.6929 50.9913 55.3912C50.8718 56.8955 50.688 57.7483 50.4721 58.2754C50.1161 58.7404 49.48 59.0809 48.3698 59.3666C47.4535 59.5828 45.0069 59.8981 40.8897 60.2504C36.7725 60.6026 34.3798 60.7862 33.7116 60.801C32.9033 60.7536 32.2891 60.6366 31.9769 60.1865C31.6646 59.7363 31.3523 59.2862 31.1801 58.8983C30.9758 58.1846 30.8371 56.0984 30.904 52.7017C30.9709 49.3051 31.2202 47.0797 31.652 46.0255C32.1378 44.8395 33.2056 43.4448 35.1357 41.9656C36.8718 40.5561 37.8318 39.4249 38.4576 38.3011C39.0294 37.3091 39.1811 36.1305 39.0526 34.8276L39.0744 34.37L38.9022 33.9821C38.2893 31.841 36.9427 31.0874 34.7761 31.527C33.1377 31.8898 31.444 34.4083 29.695 39.0827C29.1874 40.7262 28.5295 41.5242 28.1414 41.6634C27.9473 41.733 27.8073 41.6708 27.6672 41.6086L27.2791 41.7478C25.7487 41.8469 22.1931 40.4239 16.8924 37.6031C14.9855 36.6007 14.0268 35.7078 13.7364 34.8002C13.5321 34.0865 13.6517 32.5822 13.9332 30.6825C14.6143 27.4029 16.2977 24.1011 18.8434 20.7149C21.3351 17.4605 24.1712 14.982 27.1576 13.3489C28.6778 12.4665 30.4241 11.8402 32.4506 11.3383Z" fill="url(#paint0_linear)"/>
</g>
<defs>
<filter id="filter0_di" x="11.6338" y="8.56892" width="55.3572" height="79.8377" filterUnits="userSpaceOnUse" color-interpolation-filters="sRGB">
<feFlood flood-opacity="0" result="BackgroundImageFix"/>
<feColorMatrix in="SourceAlpha" type="matrix" values="0 0 0 0 0 0 0 0 0 0 0 0 0 0 0 0 0 0 127 0"/>
<feOffset dx="2" dy="2"/>
<feGaussianBlur stdDeviation="2"/>
<feColorMatrix type="matrix" values="0 0 0 0 0 0 0 0 0 0 0 0 0 0 0 0 0 0 0.15 0"/>
<feBlend mode="normal" in2="BackgroundImageFix" result="effect1_dropShadow"/>
<feBlend mode="normal" in="SourceGraphic" in2="effect1_dropShadow" result="shape"/>
<feColorMatrix in="SourceAlpha" type="matrix" values="0 0 0 0 0 0 0 0 0 0 0 0 0 0 0 0 0 0 127 0" result="hardAlpha"/>
<feOffset dx="-2" dy="-2"/>
<feGaussianBlur stdDeviation="2"/>
<feComposite in2="hardAlpha" operator="arithmetic" k2="-1" k3="1"/>
<feColorMatrix type="matrix" values="0 0 0 0 0 0 0 0 0 0 0 0 0 0 0 0 0 0 0.2 0"/>
<feBlend mode="normal" in2="shape" result="effect2_innerShadow"/>
</filter>
<linearGradient id="paint0_linear" x1="60.4685" y1="54.8374" x2="13.6528" y2="34.6856" gradientUnits="userSpaceOnUse">
<stop stop-color="#A62E41"/>
<stop offset="1" stop-color="#E13152"/>
</linearGradient>
</defs>
</svg>

<svg width="75" height="90" fill="none" xmlns="http://www.w3.org/2000/svg"><g filter="url(#filter0_di)"><path d="M40.543 63.523c2.748-.649 5.26-.313 7.78.807 2.468 1.251 4.083 3.37 5.072 6.612.409 1.428.505 2.405.515 3.188-.087 1.83-.788 3.544-2.384 5.015-1.457 1.534-3.225 2.618-5.197 2.988-2.889.586-5.4.25-7.62-1.202-2.272-1.321-3.834-3.572-4.93-6.551l-.291-.908c-.549-1.49-.343-2.8.089-3.854.831-2.434 2.255-4.294 4.357-5.385.862-.084 1.693-.494 2.609-.71zM32.45 11.338c2.942-.718 5.335-.901 7.232-.682 1.756.157 4.105.888 6.767 2.07 2.52 1.12 4.654 2.378 6.259 3.714 3.49 2.795 5.988 6.396 7.268 10.547 1.075 3.436 1.342 6.826.575 9.911-.627 3.148-2.343 6.124-5.114 9.254-1.812 1.999-2.988 3.657-3.474 4.843-.54 1.318-.94 2.698-.973 4.396-.12 1.505-.303 2.357-.519 2.884-.356.465-.992.806-2.102 1.092-.916.216-3.363.531-7.48.883-4.117.353-6.51.536-7.178.551-.809-.047-1.423-.164-1.735-.614-.312-.45-.625-.9-.797-1.289-.204-.713-.343-2.8-.276-6.196.067-3.397.316-5.622.748-6.676.486-1.187 1.554-2.581 3.484-4.06 1.736-1.41 2.696-2.541 3.322-3.665.571-.992.723-2.17.595-3.473l.021-.458-.172-.388c-.613-2.141-1.96-2.895-4.126-2.455-1.638.363-3.332 2.881-5.081 7.556-.508 1.643-1.166 2.441-1.554 2.58-.194.07-.334.008-.474-.054l-.388.139c-1.53.099-5.086-1.324-10.387-4.145-1.906-1.002-2.865-1.895-3.156-2.803-.204-.713-.084-2.218.197-4.117.681-3.28 2.365-6.582 4.91-9.968 2.492-3.255 5.328-5.733 8.315-7.366 1.52-.883 3.266-1.509 5.293-2.01z" fill="url(#paint0_linear)"/></g><defs><linearGradient id="paint0_linear" x1="60.468" y1="54.837" x2="13.653" y2="34.686" gradientUnits="userSpaceOnUse"><stop stop-color="#A62E41"/><stop offset="1" stop-color="#E13152"/></linearGradient><filter id="filter0_di" x="11.634" y="8.569" width="55.357" height="79.838" filterUnits="userSpaceOnUse" color-interpolation-filters="sRGB"><feFlood flood-opacity="0" result="BackgroundImageFix"/><feColorMatrix in="SourceAlpha" values="0 0 0 0 0 0 0 0 0 0 0 0 0 0 0 0 0 0 127 0"/><feOffset dx="2" dy="2"/><feGaussianBlur stdDeviation="2"/><feColorMatrix values="0 0 0 0 0 0 0 0 0 0 0 0 0 0 0 0 0 0 0.15 0"/><feBlend in2="BackgroundImageFix" result="effect1_dropShadow"/><feBlend in="SourceGraphic" in2="effect1_dropShadow" result="shape"/><feColorMatrix in="SourceAlpha" values="0 0 0 0 0 0 0 0 0 0 0 0 0 0 0 0 0 0 127 0" result="hardAlpha"/><feOffset dx="-2" dy="-2"/><feGaussianBlur stdDeviation="2"/><feComposite in2="hardAlpha" operator="arithmetic" k2="-1" k3="1"/><feColorMatrix values="0 0 0 0 0 0 0 0 0 0 0 0 0 0 0 0 0 0 0.2 0"/><feBlend in2="shape" result="effect2_innerShadow"/></filter></defs></svg>
